X:97
T:Oak Hill Reel
M:2/4
L:1/16
K:G
D2|G2BG dGBG|ABcd cBAG|Bdgd egdB|cBAG FADF|
G2BG dGBG|ABcd cBAG|Bdgd egdB|zdcA G2::z2|g2dg Bgdg|gabg agef|
g2dg Bgdg|cBAG FADF|g2dg Bgdg|gabg agef|gfga gfed|defa g2:|
